// @title W03-03 FAV
// @license CC BY-NC-SA 4.0 https://creativecommons.org/licenses/by-nc-sa/4.0/
// @by notweirder
// @date Feb 3 2026



samples('github:tidalcycles/dirt-samples')

setcpm(120/4)
$s: n(5).s('toys').every(2,x=>x.scrub("0.1:0.6"))

$s: n(5).s('jazz').speed("1.5 1.8 1 3").struct("x*4")

$s: n(0).s('coins').struct("x!2|x|x!8")

$s: n(0).s('birds').end(0.5).struct("x?0.6")






























  




















  










