// @title W01-01
// @license CC BY-NC-SA 4.0 https://creativecommons.org/licenses/by-nc-sa/4.0/
// @by notweirder
// @date Jan 28, 2026



setcps(2)
s("{[hh!11 white]/12 hh clap hh,[bd] clap:2 ~*4}")

