// @title W01-02
// @license CC BY-NC-SA 4.0 https://creativecommons.org/licenses/by-nc-sa/4.0/
// @by notweirder
// @date Jan 28, 2026

// 02
setcps(1)
s("bd bd bd [bd*3 bd*5]/2 ~ sd ~ {[misc:4],hh bd bd bd}").bank("korgminipops")


