// @title W01-03
// @license CC BY-NC-SA 4.0 https://creativecommons.org/licenses/by-nc-sa/4.0/
// @by notweirder
// @date Jan 28, 2026

// 03
setcps(0.5)

s("<{[[bd ~]*2 cb ,~ bd*2 perc:2],lt@3}>").bank("compurhythm8000")
