// @title W01-04
// @license CC BY-NC-SA 4.0 https://creativecommons.org/licenses/by-nc-sa/4.0/
// @by notweirder
// @date Jan 28, 2026

// 04
setcpm(156/4)

n("<{[[[1 3 2, 1 2 2 3],9],7*3],[2*2]3 4}>*1").s("gm_acoustic_guitar_steel")