// @title W02-02
// @license CC BY-NC-SA 4.0 https://creativecommons.org/licenses/by-nc-sa/4.0/
// @by notweirder
// @date Jan 28, 2026

// 02
setcpm(128/4)
$: note("4 1 3 2").s("gm_pad_new_age").struct("x@2 ~ x*2 ~").gain(1)

$: note("<12 22 10 14>").s("gm_pad_halo:1").struct("<x x x [x | x!2] >").sometimes(x=>x.speed("0.5")).gain(0.5)
$: note("<12(2,3)>").s("gm_electric_guitar_clean:9").struct("< [x | x!2] >").gain("0.4").every(4,x=>x.gain("2"))


