// @title W02-03
// @license CC BY-NC-SA 4.0 https://creativecommons.org/licenses/by-nc-sa/4.0/
// @by notweirder
// @date Jan 28, 2026

// 03
n("<2 [2?0.1] 2 2>").s("gm_bird_tweet").echo(3,0.2,0.9)
  .every(4,x=>x.room(2)).mask("<x ~ x x>")






